X: 1
T: The Lovely Jane
R: reel
M: 4/4
L: 1/8
K: Gmaj
d|:BGAF GF/E/ DD|EGCE E2DG|EAFB GcAd|
[1c/B/A/G/ FG B2Ad:|2 c/B/A/G/ eFG2zB||BAAB c3c|
cBBc d3d|ec AB/c/ dB GA/B/|c/B/c/A/ GF G3||

